#src/img/admin/icon__waiters.svg

<svg width="24" height="24" viewBox="0 0 24 24" fill="none" xmlns="http://www.w3.org/2000/svg">
<path d="M13.5 22.5H10.5C10.1022 22.5 9.72064 22.342 9.43934 22.0607C9.15804 21.7794 9 21.3978 9 21V15.75C8.60218 15.75 8.22064 15.592 7.93934 15.3107C7.65804 15.0294 7.5 14.6478 7.5 14.25V9.75C7.5 9.15326 7.73705 8.58097 8.15901 8.15901C8.58097 7.73705 9.15326 7.5 9.75 7.5H14.25C14.8467 7.5 15.419 7.73705 15.841 8.15901C16.2629 8.58097 16.5 9.15326 16.5 9.75V14.25C16.5 14.6478 16.342 15.0294 16.0607 15.3107C15.7794 15.592 15.3978 15.75 15 15.75V21C15 21.3978 14.842 21.7794 14.5607 22.0607C14.2794 22.342 13.8978 22.5 13.5 22.5ZM9.75 9C9.64979 8.99337 9.54933 9.00823 9.45533 9.04357C9.36133 9.07892 9.27596 9.13394 9.20495 9.20495C9.13394 9.27596 9.07892 9.36133 9.04357 9.45533C9.00823 9.54933 8.99337 9.64979 9 9.75V14.25H10.5V21H13.5V14.25H15V9.75C15.0066 9.64979 14.9918 9.54933 14.9564 9.45533C14.9211 9.36133 14.8661 9.27596 14.795 9.20495C14.724 9.13394 14.6387 9.07892 14.5447 9.04357C14.4507 9.00823 14.3502 8.99337 14.25 9H9.75Z" fill="#CA583E"/>
<path d="M12 6.75C11.4067 6.75 10.8266 6.57405 10.3333 6.24441C9.83994 5.91477 9.45543 5.44623 9.22836 4.89805C9.0013 4.34987 8.94189 3.74667 9.05765 3.16473C9.1734 2.58279 9.45912 2.04824 9.87868 1.62868C10.2982 1.20912 10.8328 0.923401 11.4147 0.807646C11.9967 0.69189 12.5999 0.7513 13.1481 0.978363C13.6962 1.20543 14.1648 1.58994 14.4944 2.08329C14.8241 2.57664 15 3.15666 15 3.75C15 4.54565 14.6839 5.30871 14.1213 5.87132C13.5587 6.43393 12.7957 6.75 12 6.75ZM12 2.25C11.7033 2.25 11.4133 2.33797 11.1666 2.5028C10.92 2.66762 10.7277 2.90189 10.6142 3.17598C10.5007 3.45007 10.4709 3.75167 10.5288 4.04264C10.5867 4.33361 10.7296 4.60088 10.9393 4.81066C11.1491 5.02044 11.4164 5.1633 11.7074 5.22118C11.9983 5.27906 12.2999 5.24935 12.574 5.13582C12.8481 5.02229 13.0824 4.83003 13.2472 4.58336C13.412 4.33668 13.5 4.04667 13.5 3.75C13.5 3.35218 13.342 2.97065 13.0607 2.68934C12.7794 2.40804 12.3978 2.25 12 2.25V2.25Z" fill="#CA583E"/>
</svg>

<svg width="24" height="24" fill="none" xmlns="http://www.w3.org/2000/svg"><path d="M13.5 22.5h-3A1.5 1.5 0 019 21v-5.25a1.5 1.5 0 01-1.5-1.5v-4.5A2.25 2.25 0 019.75 7.5h4.5a2.25 2.25 0 012.25 2.25v4.5a1.5 1.5 0 01-1.5 1.5V21a1.5 1.5 0 01-1.5 1.5zM9.75 9a.705.705 0 00-.75.75v4.5h1.5V21h3v-6.75H15v-4.5a.705.705 0 00-.75-.75h-4.5zM12 6.75a3 3 0 110-6 3 3 0 010 6zm0-4.5a1.5 1.5 0 100 3 1.5 1.5 0 000-3z" fill="#CA583E"/></svg>
